X:1
T:《世界の約束》 "Promise of the World" from "Howl's Moving Castle" Flute Quartet
T:Music by Joe Hisaishi
T:Arrangement of Flute Quartet by Ephraim Kee Sze Jie @ 22/12/2019
T:Arrangement of Flute Quartet by Ephraim Kee Sze Jie @ 22/12/2019
T:Arrangement of Flute Quartet by Ephraim Kee Sze Jie @ 22/12/2019
T:Arrangement of Flute Quartet by Ephraim Kee Sze Jie @ 22/12/2019
T:Arrangement of Flute Quartet by Ephraim Kee Sze Jie @ 22/12/2019
C:Joe Hisaishi
Z:Arrangement of Flute Quartet by Ephraim Kee Sze Jie @ 22/12/2019
%%score 1 2 3 4
L:1/8
Q:1/4=96
M:3/4
K:F
V:1 treble nm="Flute" snm="Fl."
V:2 treble nm="Flute" snm="Fl."
V:3 treble nm="Flute" snm="Fl."
V:4 treble nm="Flute" snm="Fl."
V:1
"^Andante con moto" z2 z2 c2 | g4 f2 | a4 g2 | d'4 c'2 | b6 | c'3 a c'a | f4 c2 | c'3 a c'a | %8
 g2 f3 e | d6 | c4 B2 | A6 | G6 | !breath!!fermata!G4 ca | a4 gf | a4 c'2 | a6- | a4 ac' | b4 d2 | %19
 d4 ag | g6- | g4 ca | a4 gf | a4 c'2 | c'6- | c'4 c'2 | d'2 c'2 b2 | c'4 ba | a6- | a4 c'2 | %30
 d'4 f2 | f2 e2 f2 | c'6 | f4 fc' | c'2 b2 a2 | g2 a2 b2 | c'6- | c'4 c'2 | d'4 f2 | d'2 e'2 d'2 | %40
 c'2 e2 f2 | c'4 d'2 | b2 c'2 d'2 | d'2 c'2 bd | a6 | g4 ca | a4 gf | a4 c'2 | a6- | a4 ac' | %50
 b4 d2 | d4 ag | g6- | g4 ca | a4 gf | a4 c'2 | c'6- | c'4 c'2 | d'2 c'2 b2 | c'4 ba | _a2 g2 f2 | %61
 _e2 _d4 | c6 | !breath!B6 | a6 | g2 f2 e2 | A6 | B2 d2 f2 | a2 c'2 e2 | d2 c3 d' | d'2 e'2 c'2 | %71
 g'4 f'2 | e'4 d'2 | c'4 =b2 | d'4 c'2 | b4 a2 | _a4 g2- | g6 | ^g6 | =g6- | %80
 !breath!!fermata!g2 z2 z2 | c'6 | c'6 | f'6 | e'2 d'2 c'2 | d'6 | f'6 | e'6- | e'4 z2 | c'6- | %90
 c'6 | a'6- | a'2 e'2 a2 | b2 a2 d'2 | a'4 g'f' | f'6- | f'4 c'2 | d'4 f2 | f2 e2 f2 | c'6 | %100
 f4 fc' | c'2 b2 a2 | g2 a2 b2 | c'6- | c'4 c'2 | d'4 f2 | d'2 e'2 d'2 | c'2 e2 f2 | c'4 d'2 | %109
 b2 c'2 d'2 | f'2 d'2 bd | a6 | g4 ca | a4 gf | a4 c'2 | a6- | a4 ac' | b4 d2 | d4 ag | g6- | %120
 g4 ca | a4 gf | a4 c'2 | c'6- | c'4 c'2 | b2 c'b ad | a2 g3 c' | f'2 d'2 c'b | f'2 e'4 | %129
 d'2 c'2 b2 | c'4 ba | c'2 _d'2 _e'2 | f'4 g'2 | g'6 | a'2 g'f' c'a | g4 f2 | a4 g2 | d'6- | %138
 !fermata!d'6 | c'6- | !fermata!c'4 !fermata!z2 |] %141
V:2
 z2 z2 c2 | e4 d2 | c4 =B2 | f6 | f2 e2 d2 | e3 c ec | d4 c2 | e3 c ec | e2 d3 c | =B6 | c4 B2 | %11
 A6 | d6 | !fermata!c2 z2 ca | a4 gf | a4 c'2 | a6- | a4 a2 | b4 d2 | d4 ag | g2 d2 f2 | e2 f2 ga | %22
 a4 gf | a4 c'2 | c'2 a2 g2 | f2 g2 a2 | b2 a2 f2 | a4 gf | f6- | f4 f2 | f4 d2 | d2 c2 d2 | %32
 e2 c4 | d4 da | a2 g2 f2 | e2 f2 g2 | f6 | _e4 e2 | d4 d2 | d2 e2 d2 | c4 A2 | c4 d2 | g2 a2 b2 | %43
 b2 a2 gd | d6 | c4 ca | a4 gf | a4 c'2 | a6- | a4 a2 | b4 d2 | d4 ag | g2 d2 f2 | e2 f2 ga | %54
 a4 gf | a4 c'2 | c'2 a2 g2 | f2 g2 a2 | b2 a2 f2 | a4 gf | f2 _e2 _d2 | c2 B4 | B6 | c6 | d6 | %65
 ^c6 | d6 | B2 d2 B2 | d4 c2 | B2 g3 b | b2 c'2 a2 | e'4 d'2 | =b6 | _b4 =b2 | a6 | g6 | f6- | f6 | %78
 f6 | e6- | !fermata!e2 z2 ca | a4 gf | a4 a2 | a6- | a4 a2 | b4 d2 | d4 ag | g2 d2 f2 | e2 f2 ga | %89
 a4 gf | a4 a2 | c'2 a2 g2 | f2 g2 a2 | b2 a2 f2 | a4 gf | f6- | f4 f2 | f4 d2 | d2 c2 d2 | e2 c4 | %100
 d4 da | a2 g2 f2 | e2 f2 g2 | f6 | _e4 e2 | d4 d2 | d2 e2 d2 | c4 A2 | c4 d2 | g2 a2 b2 | %110
 d'2 b2 gd | d6 | c4 ca | a4 gf | a4 a2 | a6- | a4 a2 | b4 d2 | d4 ag | g2 d2 f2 | e2 f2 ga | %121
 a4 gf | a4 c'2 | c'2 a2 g2 | f2 g2 a2 | d2 ag fd | a2 g3 c' | d'2 b2 ab | a2 g4 | b2 a2 gd | %130
 a4 gf | f6 | b6 | c'6 | c'6 | z6 | z6 | f6- | !fermata!f6 | f6- | !fermata!f4 !fermata!z2 |] %141
V:3
 z6 | z6 | z6 | z6 | z6 | c4 A2 | f6 | g4 c2 | g2 f3 e | f6 | e4 d2 | ^c6 | =c2 =B4 | %13
 !fermata!B4 z2 | c6 | c6 | f6 | e2 d2 c2 | d6 | f6 | e6- | e4 z2 | c6- | c6 | a6- | a2 e2 A2 | %26
 B2 A2 d2 | a4 gf | f6- | f4 c'2 | d'4 f2 | f2 g2 f2 | c'2 e2 g2 | f4 f2 | f2 d2 f2 | c6 | c6- | %37
 c4 c2 | f4 f2 | f2 g2 f2 | e4 f2 | f6 | d2 A2 G2 | G2 A2 BG | A6 | B4 z2 | c6 | c6 | f6 | %49
 e2 d2 c2 | d6 | f6 | e6- | e4 z2 | c6- | c6 | a6- | a2 e2 A2 | B2 A2 d2 | a4 gf | f6- | f4 z2 | %62
 f6 | e6 | f6 | e2 A4 | A6 | _E4 G2 | A2 c4 | G6 | A6 | d6 | f6 | _e6 | =e6 | _e6 | ^c6- | c6 | %78
 =c6 | c6 | !fermata!B2 z2 ca | a4 gf | a4 c'2 | a6- | a4 ac' | b4 d2 | d4 ag | g6- | g4 ca | %89
 a4 gf | a4 c'2 | c'6- | c'4 c'2 | d'2 c'2 b2 | c'4 ba | a6- | a4 c'2 | d'4 f2 | f2 g2 f2 | %99
 c'2 e2 g2 | f4 f2 | f2 d2 f2 | c6 | c6- | c4 c2 | f4 f2 | f2 g2 f2 | e4 f2 | f6 | d2 A2 G2 | %110
 G2 B2 BG | A6 | B4 z2 | c6 | g4 f2- | f6 | e2 d2 c2 | d6 | f6 | e6- | e4 z2 | c6- | c6 | a6- | %124
 a2 e2 A2 | B2 cB AB | c2 e3 c | d2 d2 cB | A2 G4 | F6 | E4 cc | B6 | _d6 | f6 | a2 ba af | e4 d2 | %136
 c4 =B2 | _B6- | !fermata!B6 | A6- | !fermata!A4 !fermata!z2 |] %141
V:4
 z6 | z6 | z6 | A4 G2 | d2 c2 B2 | A6 | A6 | A6 | A6 | A6 | A6 | G6 | G6 | !fermata!G4 z2 | f6 | %15
 e6 | d6 | c6 | B6 | =B6 | c6- | c4 z2 | f6- | f6 | e6 | c6 | f2 a2 d2 | c6 | c6- | c4 A2 | B6 | %31
 c6 | A6 | A4 Ac | c2 B2 A2 | G2 A2 B2 | A6- | A4 A2 | B6 | c6 | A6 | A4 F2 | B2 c2 d2 | d2 c2 d2 | %44
 f6 | e4 z2 | f6 | e6 | d6 | c6 | B6 | =B6 | c6- | c4 z2 | f6- | f6 | e6 | c6 | f2 a2 d2 | c6 | %60
 c6- | c4 z2 | G6 | G6 | A6 | G6 | F6 | G2 B2 d2 | f4 e2 | d2 c3 d | d2 e2 c2 | A6 | A6 | _A6 | %74
 G6 | G6 | =B6- | B6 | c6 | c6- | !fermata!c2 z2 z2 | f6 | e6 | d6 | c6 | B6 | =B6 | c6- | c4 z2 | %89
 f6- | f6 | e6 | c6 | f2 a2 d2 | c6 | c6- | c4 A2 | B6 | c6 | A6 | A4 Ac | c2 B2 A2 | G2 A2 B2 | %103
 A6- | A4 A2 | B6 | c6 | A6 | A4 F2 | B2 c2 d2 | f2 d4 | f6 | e4 z2 | c6 | ^c4 =c2 | d6 | c6 | B6 | %118
 =B6 | c6- | c4 z2 | f6- | f6 | e6 | c6 | f6 | c6 | B4 AB | c6 | B2 A2 GD | A4 GF | F6 | F6 | F6 | %134
 F6 | z6 | F6 | F6- | !fermata!F6 | F6- | !fermata!F4 !fermata!z2 |] %141

